Sources/FrostedUI/Resources/Icons.xcassets/downloadDocumentFilled16.imageset/download-document-filled-16.svg

<svg width="16" height="16" viewBox="0 0 16 16" fill="none" xmlns="http://www.w3.org/2000/svg" data-fui-icon="true">
  <path
    d="M9.08594 0.25C9.55001 0.25004 9.99509 0.434542 10.3232 0.762695L13.2373 3.67676C13.5655 4.00491 13.75 4.44999 13.75 4.91406V13.4863C13.75 14.6693 12.8609 15.7498 11.6211 15.75H4.37891C3.13912 15.7498 2.25 14.6693 2.25 13.4863V2.51367C2.25 1.33075 3.13911 0.250235 4.37891 0.25H9.08594ZM8.16211 5.75C7.7479 5.75 7.41211 6.08579 7.41211 6.5V9.39844L6.4834 8.46973C6.19056 8.17689 5.71576 8.177 5.42285 8.46973C5.12996 8.76262 5.12996 9.23738 5.42285 9.53027L7.37598 11.4834C7.76651 11.8738 8.39956 11.8739 8.79004 11.4834L10.9062 9.36719C11.1989 9.07431 11.199 8.59946 10.9062 8.30664C10.6134 8.01383 10.1386 8.01399 9.8457 8.30664L8.91211 9.24023V6.5C8.91211 6.08594 8.57611 5.75026 8.16211 5.75Z"
    fill="currentColor"
  />
</svg>

<svg xmlns="http://www.w3.org/2000/svg" width="16" height="16" fill="none" data-fui-icon="true" viewBox="0 0 16 16"><path fill="currentColor" d="M9.086.25c.464 0 .91.185 1.237.513l2.914 2.914c.329.328.513.773.513 1.237v8.572c0 1.183-.89 2.264-2.129 2.264H4.38c-1.24 0-2.129-1.08-2.129-2.264V2.514C2.25 1.33 3.14.25 4.379.25zm-.924 5.5a.75.75 0 0 0-.75.75v2.898l-.929-.928a.75.75 0 0 0-1.06 1.06l1.953 1.953a1 1 0 0 0 1.414 0l2.116-2.116a.75.75 0 0 0-1.06-1.06l-.934.933V6.5a.75.75 0 0 0-.75-.75"/></svg>
